assets/img/safety4.svg

<svg width="101" height="101" viewBox="0 0 101 101" fill="none" xmlns="http://www.w3.org/2000/svg">
<circle cx="50.6758" cy="50.4863" r="50" fill="#00AEEF"/>
<path d="M20.332 64.0446V84.5471H27.0996V70.8787H67.4869L74.2544 64.0446V84.5471H81.022V64.0446H74.2544H20.332Z" fill="white"/>
<path d="M50.677 57.2104C59.9552 57.2104 67.4869 49.6046 67.4869 40.2351H60.7193C60.7193 45.8568 56.2439 50.3762 50.677 50.3762C45.1101 50.3762 40.6348 45.8568 40.6348 40.2351C40.6348 34.6135 45.1101 30.0941 50.677 30.0941V23.2599C41.3989 23.2599 33.8672 30.8657 33.8672 40.2351C33.8672 49.6046 41.3989 57.2104 50.677 57.2104Z" fill="white"/>
<path d="M71.4164 30.8658L81.022 21.2759L76.2192 16.4258L66.6136 26.0157L61.9199 21.1656L57.1171 26.0157L66.6136 35.6056L71.4164 30.8658Z" fill="white"/>
</svg>

<svg width="101" height="101" fill="none" xmlns="http://www.w3.org/2000/svg"><circle cx="50.676" cy="50.486" r="50" fill="#00AEEF"/><path d="M20.332 64.045v20.502H27.1V70.88h40.387l6.767-6.834v20.502h6.768V64.045h-60.69Zm30.345-6.835c9.278 0 16.81-7.605 16.81-16.975h-6.768c0 5.622-4.475 10.141-10.042 10.141s-10.042-4.52-10.042-10.14c0-5.622 4.475-10.142 10.042-10.142V23.26c-9.278 0-16.81 7.606-16.81 16.975 0 9.37 7.532 16.975 16.81 16.975Zm20.739-26.344 9.606-9.59-4.803-4.85-9.605 9.59-4.694-4.85-4.803 4.85 9.497 9.59 4.802-4.74Z" fill="#fff"/></svg>
